X:1
T:James Gibb editions
T:O sacrum convivium - Remondi
T:#
%%score { 1 | 2 } 3
L:1/8
Q:1/4=63
M:4/4
K:Eb
V:1 treble nm="Soprano I" snm="S"
V:2 treble 
V:3 treble nm="Alto" snm="A"
V:1
"^O sacrum convivium, op.79""^Roberto Remondi\n (1851-1928)""^adagio"!p! B2 | B4 B2 B2 | %2
w: O|sa- crum con-|
 c3 c c2 cc | (e4 c2) e2 | d3 d d2 d2 | d3 d d2 d2 | c6 d2 |[M:4/4] d4 z2 dd | (f4 e2) d2 | %9
w: vi- vi- um, in quo|Chri\- * stus|su- mi- tar; re-|co- li- tur me-|mo- ri-|a pas- si-|o\- * nis|
 e4 B2 BB | c6 c2 | =B4 B2 z2 |!mf! d3 d d2 d2 | e3 e e2 z2 | e3 e e2 e2 | f3 f f2 ff | %16
w: e- jus: pas- si-|o- nis|e- jus:|mens im- ple- tur|gra- ti- a,|mens im- ple- tur|gra- ti- a: et fu-|
 (g4 e2) f2 | !>!f3 f f4- | f z!p! B4 B2 | (B4 c2) c2 | e4 e2!f! ee | c2 c2 z2 ff | d2 d2 z2 (g2 | %23
w: tu\- * rae|glo- ri- ae|* no- bis|pi\- * gnus|da- tur. Al- le-|lu- ja, Al- le-|lu- ja. Al\-|
 f2 e2 d2) e2 | (e2 dc d4) | !fermata!e8 |] %26
w: * * * le-|lu\- * * *|ja.|
V:2
!p! G2 | G4 G2 G2 | G3 G G2 GG | G6 G2 | B3 B B2 B2 | B3 B B2 B2 | (B4 =A2) A2 |[M:4/4] B4 z2 BB | %8
w: O|sa- crum con-|vi- vi- um, in quo|Chri- stus|su- mi- tar; re-|co- li- tur me-|mo\- * ri-|a pas- si-|
 (c4 B2) B2 | B4 G2 GG | (A2 GF E2) F2 | G4 G2 z2 |!mf! =B3 B B2 B2 | _B3 B B2 z2 | c3 c c2 c2 | %15
w: o\- * nis|e- jus: pas- si-|o\- * * * nis|e- jus:|mens im- ple- tur|gra- ti- a,|mens im- ple- tur|
 c3 c c2 cc | (e4 c2) d2 | !>!d3 d d4- | d z!p! B4 B2 | (B4 A2) A2 | G4 G2!f! GG | A2 A2 z2 AA | %22
w: gra- ti- a: et fu-|tu\- * rae|glo- ri- ae|* no- bis|pi\- * gnus|da- tur. Al- le-|lu- ja, Al- le-|
 B2 B2 z2 (B2 | c2 B2 A2) G2 | (F6 GA) | !fermata!G8 |] %26
w: lu- ja, Al\-|* * * le-|lu\- * *|ja.|
V:3
!p! E2 | E4 E2 E2 | E3 E E2 EE | (C4 E2) C2 | G3 G G2 G2 | G3 G G2 F2 | (E4 F2) F2 | %7
w: O|sa- crum con-|vi- vi- um, in quo|Chri\- * stus|su- mi- tar; re-|co- li- tur me-|mo\- * ri-|
[M:4/4] B,4 z2 BB | (A4 G2) F2 | G4 E2 EE | A,6 A,2 | G,4 G,2 z2 |!mf! G3 G G2 G2 | G3 G G2 z2 | %14
w: a pas- si-|o\- * nis|e- jus: pas- si-|o- nis|e- jus:|mens im- ple- tur|gra- ti- a,|
 A3 A A2 A2 | A3 A A2 =AA | (B4 c2) B2 | !>!B3 B B4- | B z!p! B4 A2 | (G4 F2) F2 | C4 C2 z2 | %21
w: mens im- ple- tur|gra- ti- a: et fu-|tu\- * rae|glo- ri- ae|* no- bis|pi\- * gnus|da- tur.|
 z2!f! AA F2 F2 | z2 BB G2 G2 | (A2 G2 F2) E2 | B,8 | !fermata!E8 |] %26
w: Al- le- lu- ja,|Al- le- lu- ja,|Al\- * * le-|lu-|ja.|

